assets/order.svg

<svg width="119" height="32" viewBox="0 0 119 32" fill="none" xmlns="http://www.w3.org/2000/svg">
<rect width="119" height="32" rx="16" fill="#FF3E79"/>
<path d="M20.0027 14.24C20.0027 14.528 19.9467 14.76 19.8347 14.936C19.7227 15.104 19.5987 15.236 19.4627 15.332C19.3027 15.444 19.1227 15.52 18.9227 15.56V15.68C19.1467 15.728 19.3467 15.816 19.5227 15.944C19.6747 16.056 19.8107 16.216 19.9307 16.424C20.0587 16.624 20.1227 16.896 20.1227 17.24V18.02C20.1227 19.42 19.4227 20.12 18.0227 20.12H14.7227C13.3227 20.12 12.6227 19.42 12.6227 18.02V17.42C12.6227 17.22 12.7227 17.12 12.9227 17.12H14.2427C14.4427 17.12 14.5427 17.22 14.5427 17.42V17.78C14.5427 18.22 14.7627 18.44 15.2027 18.44H17.5427C17.9827 18.44 18.2027 18.22 18.2027 17.78V17.24C18.2027 16.8 17.9827 16.58 17.5427 16.58H15.8027C15.6027 16.58 15.5027 16.48 15.5027 16.28V15.2C15.5027 15 15.6027 14.9 15.8027 14.9H17.4227C17.8627 14.9 18.0827 14.68 18.0827 14.24V13.82C18.0827 13.38 17.8627 13.16 17.4227 13.16H15.3227C14.8827 13.16 14.6627 13.38 14.6627 13.82V14.18C14.6627 14.38 14.5627 14.48 14.3627 14.48H13.0427C12.8427 14.48 12.7427 14.38 12.7427 14.18V13.58C12.7427 12.18 13.4427 11.48 14.8427 11.48H17.9027C19.3027 11.48 20.0027 12.18 20.0027 13.58V14.24ZM23.4929 18.26L22.9529 19.7C22.9129 19.788 22.8609 19.86 22.7969 19.916C22.7409 19.972 22.6529 20 22.5329 20H21.0329C20.8329 20 20.7729 19.9 20.8529 19.7L23.7929 11.9C23.8729 11.7 24.0329 11.6 24.2729 11.6H26.0129C26.1329 11.6 26.2209 11.628 26.2769 11.684C26.3409 11.74 26.3929 11.812 26.4329 11.9L29.3729 19.7C29.4529 19.9 29.3929 20 29.1929 20H27.6929C27.5729 20 27.4809 19.972 27.4169 19.916C27.3609 19.86 27.3129 19.788 27.2729 19.7L26.7329 18.26H23.4929ZM26.1329 16.58L25.1729 14H25.0529L24.0929 16.58H26.1329ZM32.2628 14.78H33.8828L35.4428 11.9C35.4908 11.812 35.5508 11.74 35.6228 11.684C35.7028 11.628 35.8028 11.6 35.9228 11.6H37.4228C37.5108 11.6 37.5748 11.628 37.6148 11.684C37.6548 11.74 37.6508 11.812 37.6028 11.9L35.5628 15.56L37.8428 19.7C37.8908 19.788 37.8948 19.86 37.8548 19.916C37.8148 19.972 37.7508 20 37.6628 20H36.1628C36.0428 20 35.9428 19.972 35.8628 19.916C35.7908 19.86 35.7308 19.788 35.6828 19.7L33.9428 16.46H32.2628V19.7C32.2628 19.9 32.1628 20 31.9628 20H30.6428C30.4428 20 30.3428 19.9 30.3428 19.7V11.9C30.3428 11.7 30.4428 11.6 30.6428 11.6H31.9628C32.1628 11.6 32.2628 11.7 32.2628 11.9V14.78ZM40.6538 18.26L40.1138 19.7C40.0738 19.788 40.0218 19.86 39.9578 19.916C39.9018 19.972 39.8138 20 39.6938 20H38.1938C37.9938 20 37.9338 19.9 38.0138 19.7L40.9538 11.9C41.0338 11.7 41.1938 11.6 41.4338 11.6H43.1738C43.2938 11.6 43.3818 11.628 43.4378 11.684C43.5018 11.74 43.5538 11.812 43.5938 11.9L46.5338 19.7C46.6138 19.9 46.5538 20 46.3538 20H44.8538C44.7338 20 44.6418 19.972 44.5778 19.916C44.5218 19.86 44.4738 19.788 44.4338 19.7L43.8938 18.26H40.6538ZM43.2938 16.58L42.3338 14H42.2138L41.2538 16.58H43.2938ZM54.5238 14.24C54.5238 14.528 54.4678 14.76 54.3558 14.936C54.2438 15.104 54.1198 15.236 53.9838 15.332C53.8238 15.444 53.6438 15.52 53.4438 15.56V15.68C53.6678 15.728 53.8678 15.816 54.0438 15.944C54.1958 16.056 54.3318 16.216 54.4518 16.424C54.5798 16.624 54.6438 16.896 54.6438 17.24V18.02C54.6438 19.42 53.9438 20.12 52.5438 20.12H49.2438C47.8438 20.12 47.1438 19.42 47.1438 18.02V17.42C47.1438 17.22 47.2438 17.12 47.4438 17.12H48.7638C48.9638 17.12 49.0638 17.22 49.0638 17.42V17.78C49.0638 18.22 49.2838 18.44 49.7238 18.44H52.0638C52.5038 18.44 52.7238 18.22 52.7238 17.78V17.24C52.7238 16.8 52.5038 16.58 52.0638 16.58H50.3238C50.1238 16.58 50.0238 16.48 50.0238 16.28V15.2C50.0238 15 50.1238 14.9 50.3238 14.9H51.9438C52.3838 14.9 52.6038 14.68 52.6038 14.24V13.82C52.6038 13.38 52.3838 13.16 51.9438 13.16H49.8438C49.4038 13.16 49.1838 13.38 49.1838 13.82V14.18C49.1838 14.38 49.0838 14.48 48.8838 14.48H47.5638C47.3638 14.48 47.2638 14.38 47.2638 14.18V13.58C47.2638 12.18 47.9638 11.48 49.3638 11.48H52.4238C53.8238 11.48 54.5238 12.18 54.5238 13.58V14.24ZM58.014 18.26L57.474 19.7C57.434 19.788 57.382 19.86 57.318 19.916C57.262 19.972 57.174 20 57.054 20H55.554C55.354 20 55.294 19.9 55.374 19.7L58.314 11.9C58.394 11.7 58.554 11.6 58.794 11.6H60.534C60.654 11.6 60.742 11.628 60.798 11.684C60.862 11.74 60.914 11.812 60.954 11.9L63.894 19.7C63.974 19.9 63.914 20 63.714 20H62.214C62.094 20 62.002 19.972 61.938 19.916C61.882 19.86 61.834 19.788 61.794 19.7L61.254 18.26H58.014ZM60.654 16.58L59.694 14H59.574L58.614 16.58H60.654ZM67.4486 19.7C67.4486 19.9 67.3486 20 67.1486 20H65.8286C65.6286 20 65.5286 19.9 65.5286 19.7V13.28H63.1286C62.9286 13.28 62.8286 13.18 62.8286 12.98V11.9C62.8286 11.7 62.9286 11.6 63.1286 11.6H69.8486C70.0486 11.6 70.1486 11.7 70.1486 11.9V12.98C70.1486 13.18 70.0486 13.28 69.8486 13.28H67.4486V19.7ZM76.1772 14.12C77.5772 14.12 78.2772 14.82 78.2772 16.22V17.9C78.2772 19.3 77.5772 20 76.1772 20H71.3772C71.1772 20 71.0772 19.9 71.0772 19.7V11.9C71.0772 11.7 71.1772 11.6 71.3772 11.6H72.6972C72.8972 11.6 72.9972 11.7 72.9972 11.9V14.12H76.1772ZM75.6972 18.32C76.1372 18.32 76.3572 18.1 76.3572 17.66V16.46C76.3572 16.02 76.1372 15.8 75.6972 15.8H72.9972V18.32H75.6972Z" fill="white"/>
<rect x="87" y="4" width="24" height="24" rx="12" fill="#FF3E79"/>
<path fill-rule="evenodd" clip-rule="evenodd" d="M99.8 15.9999L96.7916 13.229C96.3641 12.8353 96.3611 12.1614 96.7851 11.7639L96.9203 11.6372C97.3032 11.2782 97.8985 11.2763 98.2836 11.6329L102.938 15.9426C102.971 15.9735 102.971 16.0263 102.938 16.0572L98.3467 20.3085C97.9261 20.698 97.2758 20.696 96.8576 20.3039C96.3945 19.8697 96.3977 19.1336 96.8646 18.7036L99.8 15.9999Z" fill="white"/>
</svg>

<svg width="119" height="32" fill="none" xmlns="http://www.w3.org/2000/svg"><rect width="119" height="32" rx="16" fill="#FF3E79"/><path d="M20.003 14.24c0 .288-.056.52-.168.696-.112.168-.236.3-.372.396-.16.112-.34.188-.54.228v.12c.224.048.424.136.6.264.152.112.288.272.408.48.128.2.192.472.192.816v.78c0 1.4-.7 2.1-2.1 2.1h-3.3c-1.4 0-2.1-.7-2.1-2.1v-.6c0-.2.1-.3.3-.3h1.32c.2 0 .3.1.3.3v.36c0 .44.22.66.66.66h2.34c.44 0 .66-.22.66-.66v-.54c0-.44-.22-.66-.66-.66h-1.74c-.2 0-.3-.1-.3-.3V15.2c0-.2.1-.3.3-.3h1.62c.44 0 .66-.22.66-.66v-.42c0-.44-.22-.66-.66-.66h-2.1c-.44 0-.66.22-.66.66v.36c0 .2-.1.3-.3.3h-1.32c-.2 0-.3-.1-.3-.3v-.6c0-1.4.7-2.1 2.1-2.1h3.06c1.4 0 2.1.7 2.1 2.1v.66Zm3.49 4.02-.54 1.44a.626.626 0 0 1-.156.216c-.056.056-.144.084-.264.084h-1.5c-.2 0-.26-.1-.18-.3l2.94-7.8c.08-.2.24-.3.48-.3h1.74c.12 0 .208.028.264.084a.626.626 0 0 1 .156.216l2.94 7.8c.08.2.02.3-.18.3h-1.5c-.12 0-.212-.028-.276-.084a.727.727 0 0 1-.144-.216l-.54-1.44h-3.24Zm2.64-1.68-.96-2.58h-.12l-.96 2.58h2.04Zm6.13-1.8h1.62l1.56-2.88a.684.684 0 0 1 .18-.216.51.51 0 0 1 .3-.084h1.5c.088 0 .152.028.192.084.04.056.036.128-.012.216l-2.04 3.66 2.28 4.14c.048.088.052.16.012.216-.04.056-.104.084-.192.084h-1.5a.51.51 0 0 1-.3-.084.684.684 0 0 1-.18-.216l-1.74-3.24h-1.68v3.24c0 .2-.1.3-.3.3h-1.32c-.2 0-.3-.1-.3-.3v-7.8c0-.2.1-.3.3-.3h1.32c.2 0 .3.1.3.3v2.88Zm8.39 3.48-.54 1.44a.626.626 0 0 1-.155.216c-.056.056-.144.084-.264.084h-1.5c-.2 0-.26-.1-.18-.3l2.94-7.8c.08-.2.24-.3.48-.3h1.74c.12 0 .208.028.264.084a.626.626 0 0 1 .156.216l2.94 7.8c.08.2.02.3-.18.3h-1.5c-.12 0-.212-.028-.276-.084a.727.727 0 0 1-.144-.216l-.54-1.44h-3.24Zm2.64-1.68-.96-2.58h-.12l-.96 2.58h2.04Zm11.23-2.34c0 .288-.055.52-.167.696-.112.168-.236.3-.372.396-.16.112-.34.188-.54.228v.12c.224.048.424.136.6.264.152.112.288.272.408.48.128.2.192.472.192.816v.78c0 1.4-.7 2.1-2.1 2.1h-3.3c-1.4 0-2.1-.7-2.1-2.1v-.6c0-.2.1-.3.3-.3h1.32c.2 0 .3.1.3.3v.36c0 .44.22.66.66.66h2.34c.44 0 .66-.22.66-.66v-.54c0-.44-.22-.66-.66-.66h-1.74c-.2 0-.3-.1-.3-.3V15.2c0-.2.1-.3.3-.3h1.62c.44 0 .66-.22.66-.66v-.42c0-.44-.22-.66-.66-.66h-2.1c-.44 0-.66.22-.66.66v.36c0 .2-.1.3-.3.3h-1.32c-.2 0-.3-.1-.3-.3v-.6c0-1.4.7-2.1 2.1-2.1h3.06c1.4 0 2.1.7 2.1 2.1v.66Zm3.491 4.02-.54 1.44a.626.626 0 0 1-.156.216c-.056.056-.144.084-.264.084h-1.5c-.2 0-.26-.1-.18-.3l2.94-7.8c.08-.2.24-.3.48-.3h1.74c.12 0 .208.028.264.084a.626.626 0 0 1 .156.216l2.94 7.8c.08.2.02.3-.18.3h-1.5c-.12 0-.212-.028-.276-.084a.727.727 0 0 1-.144-.216l-.54-1.44h-3.24Zm2.64-1.68-.96-2.58h-.12l-.96 2.58h2.04Zm6.795 3.12c0 .2-.1.3-.3.3h-1.32c-.2 0-.3-.1-.3-.3v-6.42h-2.4c-.2 0-.3-.1-.3-.3V11.9c0-.2.1-.3.3-.3h6.72c.2 0 .3.1.3.3v1.08c0 .2-.1.3-.3.3h-2.4v6.42Zm8.728-5.58c1.4 0 2.1.7 2.1 2.1v1.68c0 1.4-.7 2.1-2.1 2.1h-4.8c-.2 0-.3-.1-.3-.3v-7.8c0-.2.1-.3.3-.3h1.32c.2 0 .3.1.3.3v2.22h3.18Zm-.48 4.2c.44 0 .66-.22.66-.66v-1.2c0-.44-.22-.66-.66-.66h-2.7v2.52h2.7Z" fill="#fff"/><rect x="87" y="4" width="24" height="24" rx="12" fill="#FF3E79"/><path fill-rule="evenodd" clip-rule="evenodd" d="m99.8 16-3.008-2.771a1 1 0 0 1-.007-1.465l.135-.127a1 1 0 0 1 1.364-.004l4.654 4.31a.079.079 0 0 1 0 .114l-4.591 4.252a1.092 1.092 0 1 1-1.482-1.605L99.8 16Z" fill="#fff"/></svg>
